X: 324
T:The Wandle
% Nottingham Music Database
S:Pauline Wilson, via Phil Rowe
M:6/8
K:G
"G"d2B "Em"e2B||"G"ded BGE|D6|"Am"c2A "D"d2B|"Am"c2A "D"d2B|"A7"A^GA B2^c|\
"D7"d6|
|"G"ded BGE|D6|"Am"c2A "D"d2B|"Am"c2A d2c|"G"BdB "Em"G2B|"Am"ABA "D7"DEF|"G"G6\
||
"C"g3 -g2f|g2f efe|"G"d2e d2c|B3 -B2B|"Am"c2d c2B|"D7"A3 -A2A|"G"d2e d2B|\
"G7"G3 -GBd|
"C"g3 -g2f|g2f efe|"G"d2e d2c|"G"B6|"Am"cdc A2B|"D7"c2d e2f|"G"g2d "D7"B2d|\
"G"G6||<end>
<start>
